src/assets/close.svg

<svg xmlns="http://www.w3.org/2000/svg" xmlns:xlink="http://www.w3.org/1999/xlink" width="2000" zoomAndPan="magnify" viewBox="0 0 1500 1499.999933" height="2000" preserveAspectRatio="xMidYMid meet" version="1.0"><defs><clipPath id="b019df72c2"><path d="M 6.375 6.375 L 1493.625 6.375 L 1493.625 1493.625 L 6.375 1493.625 Z M 6.375 6.375 " clip-rule="nonzero"/></clipPath><clipPath id="eda5f96767"><path d="M 0.375 0.375 L 1487.625 0.375 L 1487.625 1487.625 L 0.375 1487.625 Z M 0.375 0.375 " clip-rule="nonzero"/></clipPath><clipPath id="107ce0f4bd"><rect x="0" width="1488" y="0" height="1488"/></clipPath><clipPath id="4f25aeaa87"><path d="M 312 312 L 1188 312 L 1188 1188 L 312 1188 Z M 312 312 " clip-rule="nonzero"/></clipPath><clipPath id="929695374b"><path d="M 749.996094 72.550781 L 1427.449219 750 L 749.996094 1427.453125 L 72.542969 750 Z M 749.996094 72.550781 " clip-rule="nonzero"/></clipPath><clipPath id="05c968d712"><path d="M 1166.953125 489.507812 L 1010.488281 333.042969 C 997.550781 320.101562 980 312.832031 961.699219 312.832031 C 943.398438 312.832031 925.847656 320.101562 912.910156 333.042969 L 798.785156 447.167969 C 785.847656 460.105469 768.296875 467.375 749.996094 467.375 C 731.695312 467.375 714.144531 460.105469 701.207031 447.167969 L 587.082031 333.042969 C 574.140625 320.101562 556.59375 312.832031 538.292969 312.832031 C 519.992188 312.832031 502.441406 320.101562 489.5 333.042969 L 333.039062 489.507812 C 320.097656 502.449219 312.828125 519.996094 312.828125 538.296875 C 312.828125 556.597656 320.097656 574.148438 333.039062 587.089844 L 447.160156 701.210938 C 460.101562 714.152344 467.371094 731.703125 467.371094 750 C 467.371094 768.300781 460.101562 785.851562 447.160156 798.792969 L 333.039062 912.914062 C 320.097656 925.855469 312.828125 943.40625 312.828125 961.707031 C 312.828125 980.003906 320.097656 997.554688 333.039062 1010.496094 L 489.5 1166.960938 C 502.441406 1179.898438 519.992188 1187.167969 538.292969 1187.167969 C 556.59375 1187.167969 574.140625 1179.898438 587.082031 1166.960938 L 701.207031 1052.835938 C 714.144531 1039.898438 731.695312 1032.628906 749.996094 1032.628906 C 768.296875 1032.628906 785.847656 1039.898438 798.785156 1052.835938 L 912.910156 1166.960938 C 925.847656 1179.898438 943.398438 1187.167969 961.699219 1187.167969 C 980 1187.167969 997.550781 1179.898438 1010.488281 1166.960938 L 1166.953125 1010.496094 C 1179.894531 997.554688 1187.164062 980.003906 1187.164062 961.707031 C 1187.164062 943.40625 1179.894531 925.855469 1166.953125 912.914062 L 1052.832031 798.792969 C 1039.890625 785.851562 1032.621094 768.300781 1032.621094 750 C 1032.621094 731.703125 1039.890625 714.152344 1052.832031 701.210938 L 1166.953125 587.089844 C 1179.894531 574.148438 1187.164062 556.597656 1187.164062 538.296875 C 1187.164062 519.996094 1179.894531 502.449219 1166.953125 489.507812 Z M 1166.953125 489.507812 " clip-rule="nonzero"/></clipPath><clipPath id="2c0f463bfd"><path d="M 0.71875 0.71875 L 875.28125 0.71875 L 875.28125 875.28125 L 0.71875 875.28125 Z M 0.71875 0.71875 " clip-rule="nonzero"/></clipPath><clipPath id="95d8be4041"><path d="M 437.996094 -239.449219 L 1115.449219 438 L 437.996094 1115.453125 L -239.457031 438 Z M 437.996094 -239.449219 " clip-rule="nonzero"/></clipPath><clipPath id="b1354c16ff"><path d="M 854.953125 177.507812 L 698.488281 21.042969 C 685.550781 8.101562 668 0.832031 649.699219 0.832031 C 631.398438 0.832031 613.847656 8.101562 600.910156 21.042969 L 486.785156 135.167969 C 473.847656 148.105469 456.296875 155.375 437.996094 155.375 C 419.695312 155.375 402.144531 148.105469 389.207031 135.167969 L 275.082031 21.042969 C 262.140625 8.101562 244.59375 0.832031 226.292969 0.832031 C 207.992188 0.832031 190.441406 8.101562 177.5 21.042969 L 21.039062 177.507812 C 8.097656 190.449219 0.828125 207.996094 0.828125 226.296875 C 0.828125 244.597656 8.097656 262.148438 21.039062 275.089844 L 135.160156 389.210938 C 148.101562 402.152344 155.371094 419.703125 155.371094 438 C 155.371094 456.300781 148.101562 473.851562 135.160156 486.792969 L 21.039062 600.914062 C 8.097656 613.855469 0.828125 631.40625 0.828125 649.707031 C 0.828125 668.003906 8.097656 685.554688 21.039062 698.496094 L 177.5 854.960938 C 190.441406 867.898438 207.992188 875.167969 226.292969 875.167969 C 244.59375 875.167969 262.140625 867.898438 275.082031 854.960938 L 389.207031 740.835938 C 402.144531 727.898438 419.695312 720.628906 437.996094 720.628906 C 456.296875 720.628906 473.847656 727.898438 486.785156 740.835938 L 600.910156 854.960938 C 613.847656 867.898438 631.398438 875.167969 649.699219 875.167969 C 668 875.167969 685.550781 867.898438 698.488281 854.960938 L 854.953125 698.496094 C 867.894531 685.554688 875.164062 668.003906 875.164062 649.707031 C 875.164062 631.40625 867.894531 613.855469 854.953125 600.914062 L 740.832031 486.792969 C 727.890625 473.851562 720.621094 456.300781 720.621094 438 C 720.621094 419.703125 727.890625 402.152344 740.832031 389.210938 L 854.953125 275.089844 C 867.894531 262.148438 875.164062 244.597656 875.164062 226.296875 C 875.164062 207.996094 867.894531 190.449219 854.953125 177.507812 Z M 854.953125 177.507812 " clip-rule="nonzero"/></clipPath><clipPath id="22dee4e4b5"><rect x="0" width="876" y="0" height="876"/></clipPath></defs><g clip-path="url(#b019df72c2)"><g transform="matrix(1, 0, 0, 1, 6, 6)"><g clip-path="url(#107ce0f4bd)"><g clip-path="url(#eda5f96767)"><path fill="#c4c4c4" d="M 0.375 0.375 L 1487.625 0.375 L 1487.625 1487.625 L 0.375 1487.625 Z M 0.375 0.375 " fill-opacity="1" fill-rule="nonzero"/></g></g></g><path stroke-linecap="butt" transform="matrix(0.75, 0, 0, 0.75, 6.375033, 6.374979)" fill="none" stroke-linejoin="miter" d="M -0.0000437345 0.0000273988 L 1983.000127 0.0000273988 L 1983.000127 1983.000198 L -0.0000437345 1983.000198 Z M -0.0000437345 0.0000273988 " stroke="#000000" stroke-width="270" stroke-opacity="1" stroke-miterlimit="4"/></g><g clip-path="url(#4f25aeaa87)"><g clip-path="url(#929695374b)"><g clip-path="url(#05c968d712)"><g transform="matrix(1, 0, 0, 1, 312, 312)"><g clip-path="url(#22dee4e4b5)"><g clip-path="url(#2c0f463bfd)"><g clip-path="url(#95d8be4041)"><g clip-path="url(#b1354c16ff)"><path fill="#ffffff" d="M 437.996094 -239.449219 L 1115.449219 438 L 437.996094 1115.453125 L -239.457031 438 Z M 437.996094 -239.449219 " fill-opacity="1" fill-rule="nonzero"/></g></g></g></g></g></g></g></g></svg>

<svg xmlns="http://www.w3.org/2000/svg" width="2000" height="2000" viewBox="0 0 1500 1500">
  <defs>
    <clipPath id="a">
      <path d="M6.375 6.375h1487.25v1487.25H6.375Zm0 0"/>
    </clipPath>
    <clipPath id="c">
      <path d="M.375.375h1487.25v1487.25H.375Zm0 0"/>
    </clipPath>
    <clipPath id="b">
      <path d="M0 0h1488v1488H0z"/>
    </clipPath>
    <clipPath id="d">
      <path d="M312 312h876v876H312Zm0 0"/>
    </clipPath>
    <clipPath id="e">
      <path d="M749.996 72.55 1427.45 750l-677.453 677.453L72.543 750Zm0 0"/>
    </clipPath>
    <clipPath id="f">
      <path d="m1166.953 489.508-156.465-156.465a69 69 0 0 0-48.789-20.211 69 69 0 0 0-48.789 20.211L798.785 447.168a69 69 0 0 1-97.578 0L587.082 333.043a69 69 0 0 0-97.582 0L333.04 489.508a69 69 0 0 0 0 97.582l114.12 114.12a69 69 0 0 1 0 97.583L333.04 912.914a69 69 0 0 0 0 97.582l156.46 156.465a69.006 69.006 0 0 0 97.582 0l114.125-114.125a69 69 0 0 1 97.578 0L912.91 1166.96a69 69 0 0 0 97.578 0l156.465-156.465a69 69 0 0 0 0-97.582l-114.121-114.121a69 69 0 0 1 0-97.582l114.121-114.121a69 69 0 0 0 0-97.582m0 0"/>
    </clipPath>
    <clipPath id="h">
      <path d="M.719.719H875.28V875.28H.72Zm0 0"/>
    </clipPath>
    <clipPath id="i">
      <path d="M437.996-239.45 1115.45 438l-677.453 677.453L-239.457 438Zm0 0"/>
    </clipPath>
    <clipPath id="j">
      <path d="M854.953 177.508 698.488 21.043A69 69 0 0 0 649.7.832a69 69 0 0 0-48.789 20.211L486.785 135.168a69 69 0 0 1-97.578 0L275.082 21.043a69 69 0 0 0-97.582 0L21.04 177.508a69 69 0 0 0 0 97.582l114.12 114.12a69 69 0 0 1 0 97.583L21.04 600.914a69 69 0 0 0 0 97.582L177.5 854.961a69.006 69.006 0 0 0 97.582 0l114.125-114.125a69 69 0 0 1 97.578 0L600.91 854.96a69 69 0 0 0 97.578 0l156.465-156.465a69 69 0 0 0 0-97.582l-114.121-114.12a69 69 0 0 1 0-97.582L854.953 275.09a69 69 0 0 0 0-97.582m0 0"/>
    </clipPath>
    <clipPath id="g">
      <path d="M0 0h876v876H0z"/>
    </clipPath>
  </defs>
  <g clip-path="url(#a)">
    <g clip-path="url(#b)" transform="translate(6 6)">
      <g clip-path="url(#c)">
        <path fill="#c4c4c4" d="M.375.375h1487.25v1487.25H.375Zm0 0"/>
      </g>
    </g>
    <path fill="none" stroke="#000" stroke-width="202.5" d="M6.375 6.375h1487.25v1487.25H6.375Zm0 0"/>
  </g>
  <g clip-path="url(#d)">
    <g clip-path="url(#e)">
      <g clip-path="url(#f)">
        <g clip-path="url(#g)" transform="translate(312 312)">
          <g clip-path="url(#h)">
            <g clip-path="url(#i)">
              <g clip-path="url(#j)">
                <path fill="#fff" d="M437.996-239.45 1115.45 438l-677.453 677.453L-239.457 438Zm0 0"/>
              </g>
            </g>
          </g>
        </g>
      </g>
    </g>
  </g>
</svg>
